X:1
T:Polska
T:efter Alfred Petersson, Nttraby, Blekinge (SvL, Band 18, nr 312)
O:Nttraby, Blekinge
S:Svenska Ltar
N:Svenska Ltar, Band 18 nr 312
R:Polska
C:Alfred Petersson
M:3/4
L:1/16
Q:1/4=80
Z:Konverterad till abc-format av  Olle Paulsson 05-01-03
K:F
f2fc A2Ac f2fa|(ag)ba (gf)ed c2de|f2fc A2Ac f2fa|(ge)gd [f4d4] [e2c2] z2:|
|:c4 (Ac)AC (dc)BA|(GB)AB (GB)AB (cB)AG|(cd)cB (Ac)Bc (dc)BA|
(GB)AB (GB)AB (cB)AG|FGAB cdef f2af|(cd)cB [B4G4] [A2F2] z2:|
